X: 36969
T: Shuffle And Cut
R: slip jig
M: 9/8
K: Dmajor
|:dBG FAF (E/F/G)E|=cEE E2B AFD|dBG FAF EGE|AFD D2B AFD:|
|:(f/g/a)f (e/f/g)e (B/c/d)B|=cEE E2B AFD|(f/g/a)f (e/f/g)e (B/c/d)B|AD D2B AFD:|
|:G2e F2d E2D|=cEE E2B AFD|G2e F2d E2B|AFD D2B AFD:|

